!!!ONR: No. 7
!! From Harold Courlander, "Haiti Singing"
!! Chapel Hill: University of North Carolina Press, 1939
!! Copyright University of North Carolina Press
!!!ENC: D. Huron
**kern
*clefG2
*K[Bb4Ab4]
*M2/4
!! Repeats have been expanded in this encoding.
=1
6r
6c
[6f
=2
8f]
8c
8f
8g
=3
4e
8.e
16c
=4
8c
8c
4c
=5
6r
6c
[6f
=6
8f]
8c
8f
8g
=7
4e
8.e
16c
=8
8c
8c
[4c
=9
8c]
8f
8a-
8a-
=10
4g
8e
8f
=11
4.d
8B-
=12
8c
8c
4c
==
*-
